src/assets/filled/RepeatCircle.svg

<?xml version="1.0" encoding="UTF-8"?>
<svg width="24" height="24" viewBox="0 0 24 24" xmlns="http://www.w3.org/2000/svg">
 <path d="m12 2c-5.52 0-10 4.48-10 10s4.48 10 10 10 10-4.48 10-10-4.48-10-10-10zm5.19 13.94c-0.04 0.09-0.09 0.17-0.16 0.24l-1.69 1.69c-0.15 0.15-0.34 0.22-0.53 0.22s-0.38-0.07-0.53-0.22c-0.29-0.29-0.29-0.77 0-1.06l0.41-0.41h-5.59c-1.3 0-2.35-1.06-2.35-2.35v-1.77c0-0.41 0.34-0.75 0.75-0.75s0.75 0.34 0.75 0.75v1.77c0 0.47 0.38 0.85 0.85 0.85h5.59l-0.41-0.41c-0.29-0.29-0.29-0.77 0-1.06s0.77-0.29 1.06 0l1.69 1.69c0.07 0.07 0.12 0.15 0.16 0.24 0.08 0.19 0.08 0.4 0 0.58zm0.06-4.22c0 0.41-0.34 0.75-0.75 0.75s-0.75-0.34-0.75-0.75v-1.77c0-0.47-0.38-0.85-0.85-0.85h-5.59l0.41 0.4c0.29 0.29 0.29 0.77 0 1.06-0.15 0.15-0.34 0.22-0.53 0.22s-0.38-0.07-0.53-0.22l-1.69-1.69c-0.07-0.07-0.12-0.15-0.16-0.24-0.08-0.18-0.08-0.39 0-0.57 0.04-0.09 0.09-0.18 0.16-0.25l1.69-1.69c0.29-0.29 0.77-0.29 1.06 0s0.29 0.77 0 1.06l-0.41 0.41h5.59c1.3 0 2.35 1.06 2.35 2.35v1.78z"/>
</svg>

<svg width="24" height="24" viewBox="0 0 24 24"  xmlns="http://www.w3.org/2000/svg">
<path d="M12 2C6.48 2 2 6.48 2 12C2 17.52 6.48 22 12 22C17.52 22 22 17.52 22 12C22 6.48 17.52 2 12 2ZM17.19 15.94C17.15 16.03 17.1 16.11 17.03 16.18L15.34 17.87C15.19 18.02 15 18.09 14.81 18.09C14.62 18.09 14.43 18.02 14.28 17.87C13.99 17.58 13.99 17.1 14.28 16.81L14.69 16.4H9.1C7.8 16.4 6.75 15.34 6.75 14.05V12.28C6.75 11.87 7.09 11.53 7.5 11.53C7.91 11.53 8.25 11.87 8.25 12.28V14.05C8.25 14.52 8.63 14.9 9.1 14.9H14.69L14.28 14.49C13.99 14.2 13.99 13.72 14.28 13.43C14.57 13.14 15.05 13.14 15.34 13.43L17.03 15.12C17.1 15.19 17.15 15.27 17.19 15.36C17.27 15.55 17.27 15.76 17.19 15.94ZM17.25 11.72C17.25 12.13 16.91 12.47 16.5 12.47C16.09 12.47 15.75 12.13 15.75 11.72V9.95C15.75 9.48 15.37 9.1 14.9 9.1H9.31L9.72 9.5C10.01 9.79 10.01 10.27 9.72 10.56C9.57 10.71 9.38 10.78 9.19 10.78C9 10.78 8.81 10.71 8.66 10.56L6.97 8.87C6.9 8.8 6.85 8.72 6.81 8.63C6.73 8.45 6.73 8.24 6.81 8.06C6.85 7.97 6.9 7.88 6.97 7.81L8.66 6.12C8.95 5.83 9.43 5.83 9.72 6.12C10.01 6.41 10.01 6.89 9.72 7.18L9.31 7.59H14.9C16.2 7.59 17.25 8.65 17.25 9.94V11.72Z" />
</svg>
